X:334
T:McFadden's Handsome Daughter
R:reel
H:Version 4 is Cathal Hayden's "inside out" version.
H:Versions 2 and 3 are somewhere in between.
D:Molloy, Peoples, Brady
D:Music at Matt Molloy's
D:Four Men and a Dog: Barking Mad
Z:id:hn-reel-334
M:C|
K:A
~E3F ABcA|~B3c ecAF|~E3F A2af|1 ecBd cBAF:|2 ecBd cAA2||
aece f2af|edcA BAFA|aece f2af|edcB ABce|
aece aecA|B2cA BAFA|agfe f2af|edcB ABcd||
~e3f ecac|ecac bB~B2|ce~e2 ceaf|ecBd cA~A2|
ce~e2 ceae|ceae fB~B2|cefg ~a3f|e2ce aecA||
